resources/icons/hicolor/scalable/actions/cm-wired-no-route-symbolic.svg

<?xml version="1.0" encoding="UTF-8"?>
<svg height="16px" viewBox="0 0 16 16" width="16px" xmlns="http://www.w3.org/2000/svg">
    <g fill="#2e3436">
        <path d="m 8.136719 4.007812 c -0.4375 -0.023437 -0.882813 0.046876 -1.300781 0.222657 c -1.117188 0.460937 -1.851563 1.558593 -1.851563 2.769531 h 2 c 0 -0.40625 0.242187 -0.769531 0.617187 -0.925781 c 0.375 -0.152344 0.800782 -0.070313 1.089844 0.21875 c 0.289063 0.289062 0.371094 0.714843 0.21875 1.089843 c -0.15625 0.375 -0.519531 0.617188 -0.925781 0.617188 c -0.550781 0 -1 0.449219 -1 1 v 2 h 2 v -1.179688 c 0.785156 -0.28125 1.441406 -0.875 1.773437 -1.671874 c 0.460938 -1.117188 0.203126 -2.414063 -0.652343 -3.269532 c -0.535157 -0.535156 -1.242188 -0.835937 -1.96875 -0.871094 z m -0.152344 7.992188 c -0.550781 0 -1 0.449219 -1 1 s 0.449219 1 1 1 s 1 -0.449219 1 -1 s -0.449219 -1 -1 -1 z m 0 0"/>
        <path d="m 6 0 c -0.554688 0 -1 0.445312 -1 1 v 3 c 0 0.105469 0.019531 0.203125 0.050781 0.300781 c 0.382813 -0.421875 0.859375 -0.761719 1.40625 -0.988281 c 0.558594 -0.230469 1.152344 -0.324219 1.730469 -0.292969 c 0.964844 0.046875 1.90625 0.449219 2.617188 1.160157 c 0.046874 0.046874 0.089843 0.097656 0.136718 0.148437 c 0.035156 -0.101563 0.058594 -0.210937 0.058594 -0.328125 v -3 c 0 -0.554688 -0.445312 -1 -1 -1 z m 1.988281 6.984375 s 0 0.003906 -0.007812 0.003906 c -0.015625 0.007813 -0.003907 -0.007812 -0.003907 0.011719 c -0.011718 0.007812 -0.019531 0.015625 -0.027343 0.023438 c 0.011719 0 0.023437 -0.011719 0.035156 -0.011719 c 0.015625 0 0.003906 0.007812 0.007813 -0.007813 c 0.007812 -0.015625 0.011718 0 0 -0.011718 c -0.007813 -0.007813 -0.003907 -0.007813 -0.003907 -0.007813 z m -7.988281 0.015625 v 2 h 2 v 2 h -1 c -0.554688 0 -1 0.445312 -1 1 v 3 c 0 0.554688 0.445312 1 1 1 h 4 c 0.554688 0 1 -0.445312 1 -1 v -1.886719 c -0.003906 -0.035156 -0.007812 -0.074219 -0.007812 -0.113281 c 0 -0.03125 0.007812 -0.066406 0.007812 -0.097656 v -0.902344 c 0 -0.554688 -0.445312 -1 -1 -1 h -1 v -2 h 1.992188 c 0 -0.378906 0.234374 -0.695312 0.445312 -1.011719 h -1.453125 c -0.261719 0.003907 -0.515625 -0.101562 -0.699219 -0.289062 c -0.1875 -0.183594 -0.292968 -0.4375 -0.292968 -0.699219 z m 11.96875 0 c 0 0.515625 -0.09375 1.035156 -0.300781 1.527344 c -0.066407 0.167968 -0.148438 0.324218 -0.242188 0.472656 h 0.574219 v 2 h -1 c -0.554688 0 -1 0.445312 -1 1 v 3 c 0 0.554688 0.445312 1 1 1 h 4 c 0.554688 0 1 -0.445312 1 -1 v -3 c 0 -0.554688 -0.445312 -1 -1 -1 h -1 v -2 h 2 v -2 z m 0 0" fill-opacity="0.34902"/>
    </g>
</svg>

<svg width='16' height='16'
     xmlns:gpa='https://www.gtk.org/grappa'
     gpa:version='1'>
  <path d='M8.14 4.01C7.70 3.98 7.25 4.05 6.84 4.23C5.72 4.69 4.98 5.79 4.98 7.00L6.98 7.00C6.98 6.59 7.23 6.23 7.60 6.07C7.98 5.92 8.40 6.00 8.69 6.29C8.98 6.58 9.06 7.01 8.91 7.38C8.75 7.76 8.39 8.00 7.98 8.00C7.43 8.00 6.98 8.45 6.98 9.00L6.98 11.00L8.98 11.00L8.98 9.82C9.77 9.54 10.43 8.95 10.76 8.15C11.22 7.03 10.96 5.73 10.11 4.88C9.57 4.34 8.86 4.04 8.14 4.01ZM7.98 12.00C7.43 12.00 6.98 12.45 6.98 13.00C6.98 13.55 7.43 14.00 7.98 14.00C8.54 14.00 8.98 13.55 8.98 13.00C8.98 12.45 8.54 12.00 7.98 12.00ZM7.98 12.00'
stroke='none'
fill='rgb(0,0,0)'
gpa:fill='foreground'/>
  <path d='M6.00 0.00C5.45 0.00 5.00 0.45 5.00 1.00L5.00 4.00C5.00 4.11 5.02 4.20 5.05 4.30C5.43 3.88 5.91 3.54 6.46 3.31C7.02 3.08 7.61 2.99 8.19 3.02C9.15 3.07 10.09 3.47 10.80 4.18C10.85 4.23 10.89 4.28 10.94 4.33C10.98 4.23 11.00 4.12 11.00 4.00L11.00 1.00C11.00 0.45 10.55 0.00 10.00 0.00ZM7.99 6.98C7.99 6.98 7.99 6.99 7.98 6.99C7.96 7.00 7.98 6.98 7.98 7.00C7.96 7.01 7.96 7.02 7.95 7.02C7.96 7.02 7.97 7.01 7.98 7.01C8.00 7.01 7.99 7.02 7.99 7.00C8.00 6.99 8.00 7.00 7.99 6.99C7.98 6.98 7.99 6.98 7.99 6.98ZM0.00 7.00L0.00 9.00L2.00 9.00L2.00 11.00L1.00 11.00C0.45 11.00 0.00 11.45 0.00 12.00L0.00 15.00C0.00 15.55 0.45 16.00 1.00 16.00L5.00 16.00C5.55 16.00 6.00 15.55 6.00 15.00L6.00 13.11C6.00 13.08 5.99 13.04 5.99 13.00C5.99 12.97 6.00 12.93 6.00 12.90L6.00 12.00C6.00 11.45 5.55 11.00 5.00 11.00L4.00 11.00L4.00 9.00L5.99 9.00C5.99 8.62 6.23 8.30 6.44 7.99L4.98 7.99C4.72 7.99 4.47 7.89 4.29 7.70C4.10 7.52 3.99 7.26 3.99 7.00ZM11.97 7.00C11.97 7.52 11.88 8.04 11.67 8.53C11.60 8.70 11.52 8.85 11.43 9.00L12.00 9.00L12.00 11.00L11.00 11.00C10.45 11.00 10.00 11.45 10.00 12.00L10.00 15.00C10.00 15.55 10.45 16.00 11.00 16.00L15.00 16.00C15.55 16.00 16.00 15.55 16.00 15.00L16.00 12.00C16.00 11.45 15.55 11.00 15.00 11.00L14.00 11.00L14.00 9.00L16.00 9.00L16.00 7.00ZM11.97 7.00'
stroke='none'
fill='rgb(0,0,0)'
gpa:fill='foreground'/>
</svg>
